X:16
T: CHRISTINCHEN GIENG IN GARTEN
N: E0002D
O: Europa, Mitteleuropa, Deutschland, Hildesheim
R: Sage, Maerchen -, Zauber - Lied
M: 6/8
L: 1/16
K: F
C2 | A4A2G2A2G2 | F2C2z6
C2 | A4A2G2A2G2 | F2C2z6
F2 | F4F2f4d2 | d3cc2A4
A2 | A4G2c4B2 | B4A2A4

@@@ Tune index: 3666
